symbols/web/assignment_late/materialsymbolsoutlined/assignment_late_wght500fill1_48px.svg

<svg xmlns="http://www.w3.org/2000/svg" height="48" width="48"><path d="M24 34.2q.75 0 1.3-.55t.55-1.3q0-.8-.55-1.325-.55-.525-1.3-.525t-1.3.525q-.55.525-.55 1.325 0 .75.55 1.3t1.3.55Zm-1.6-6.55h3.1V13.8h-3.1ZM9.1 42.35q-1.4 0-2.4-1t-1-2.45V9.15q0-1.45 1-2.45 1-1 2.4-1h9.95q.35-1.75 1.725-2.875T24 1.7q1.85 0 3.225 1.125T28.95 5.7h9.95q1.4 0 2.4 1t1 2.45V38.9q0 1.45-1 2.45-1 1-2.4 1ZM24 8.25q.75 0 1.275-.55.525-.55.525-1.25 0-.75-.525-1.3T24 4.6q-.75 0-1.275.55-.525.55-.525 1.25 0 .75.525 1.3T24 8.25Z"/></svg>

<svg xmlns="http://www.w3.org/2000/svg" height="48" width="48"><path d="M24 34.2Q24.75 34.2 25.3 33.65Q25.85 33.1 25.85 32.35Q25.85 31.55 25.3 31.025Q24.75 30.5 24 30.5Q23.25 30.5 22.7 31.025Q22.15 31.55 22.15 32.35Q22.15 33.1 22.7 33.65Q23.25 34.2 24 34.2ZM22.4 27.65H25.5V13.8H22.4ZM9.1 42.35Q7.7 42.35 6.7 41.35Q5.7 40.35 5.7 38.9V9.15Q5.7 7.75 6.7 6.725Q7.7 5.7 9.1 5.7H18.2Q19 3.95 20.55 2.825Q22.1 1.7 24.05 1.7Q25.95 1.7 27.5 2.825Q29.05 3.95 29.8 5.7H38.9Q40.3 5.7 41.3 6.725Q42.3 7.75 42.3 9.15V38.9Q42.3 40.35 41.3 41.35Q40.3 42.35 38.9 42.35ZM24 8.35Q24.75 8.35 25.275 7.8Q25.8 7.25 25.8 6.55Q25.8 5.8 25.275 5.25Q24.75 4.7 24 4.7Q23.25 4.7 22.725 5.25Q22.2 5.8 22.2 6.5Q22.2 7.25 22.725 7.8Q23.25 8.35 24 8.35Z"/></svg>
